public/imgs/Footer/Social/ic-facebook.svg

<svg width="15" height="28" viewBox="0 0 15 28" fill="none" xmlns="http://www.w3.org/2000/svg">
<path d="M0.451613 14.9128H3.52086V27.5484C3.52086 27.7979 3.72301 28 3.97248 28H9.1765C9.42597 28 9.62812 27.7979 9.62812 27.5484V14.9723H13.1565C13.3859 14.9723 13.5789 14.8002 13.6051 14.5723L14.141 9.92049C14.1557 9.7925 14.1152 9.66434 14.0295 9.56832C13.9438 9.47222 13.8212 9.41721 13.6925 9.41721H9.6283V6.50124C9.6283 5.62222 10.1016 5.17648 11.0352 5.17648C11.1682 5.17648 13.6925 5.17648 13.6925 5.17648C13.9419 5.17648 14.1441 4.97425 14.1441 4.72486V0.454955C14.1441 0.205484 13.9419 0.00334194 13.6925 0.00334194H10.0303C10.0045 0.00207742 9.94714 0 9.86259 0C9.22717 0 7.01852 0.124735 5.27384 1.72977C3.34076 3.5084 3.60947 5.63803 3.67369 6.00726V9.41712H0.451613C0.202142 9.41712 0 9.61926 0 9.86874V14.4611C0 14.7106 0.202142 14.9128 0.451613 14.9128Z" fill="white"/>
</svg>

<svg xmlns="http://www.w3.org/2000/svg" width="15" height="28" fill="none"><path fill="#fff" d="M.452 14.913H3.52v12.635c0 .25.202.452.451.452h5.205c.249 0 .451-.202.451-.452V14.972h3.528c.23 0 .423-.172.45-.4l.535-4.652a.451.451 0 0 0-.448-.503H9.628V6.501c0-.879.474-1.325 1.407-1.325h2.658c.249 0 .451-.202.451-.451V.455a.452.452 0 0 0-.451-.452H10.03A3.587 3.587 0 0 0 9.863 0c-.636 0-2.844.125-4.59 1.73-1.932 1.778-1.664 3.908-1.6 4.277v3.41H.453A.452.452 0 0 0 0 9.87v4.592c0 .25.202.452.452.452Z"/></svg>
